icons/midnadark/actions/24/kstars_ekos.svg

<?xml version="1.0" encoding="UTF-8" standalone="no"?>
<!-- Created with Inkscape (http://www.inkscape.org/) -->

<svg
   xmlns:dc="http://purl.org/dc/elements/1.1/"
   xmlns:cc="http://creativecommons.org/ns#"
   xmlns:rdf="http://www.w3.org/1999/02/22-rdf-syntax-ns#"
   xmlns:svg="http://www.w3.org/2000/svg"
   xmlns="http://www.w3.org/2000/svg"
   xmlns:sodipodi="http://sodipodi.sourceforge.net/DTD/sodipodi-0.dtd"
   xmlns:inkscape="http://www.inkscape.org/namespaces/inkscape"
   width="22"
   height="22"
   id="svg2"
   version="1.1"
   inkscape:version="0.91 r13725"
   viewBox="0 0 22 22"
   sodipodi:docname="kstars_ekos.svg">
  <defs
     id="defs4">
    <style
       type="text/css"
       id="current-color-scheme">
      .ColorScheme-Text {
        color:#f2f2f2;
      }
      .ColorScheme-Background {
        color:#eff0f1;
      }
      .ColorScheme-Highlight {
        color:#3daee9;
      }
      .ColorScheme-ViewText {
        color:#31363b;
      }
      .ColorScheme-ViewBackground {
        color:#fcfcfc;
      }
      .ColorScheme-ViewHover {
        color:#93cee9;
      }
      .ColorScheme-ViewFocus{
        color:#3daee9;
      }
      .ColorScheme-ButtonText {
        color:#31363b;
      }
      .ColorScheme-ButtonBackground {
        color:#eff0f1;
      }
      .ColorScheme-ButtonHover {
        color:#93cee9;
      }
      .ColorScheme-ButtonFocus{
        color:#3daee9;
      }
      </style>
  </defs>
  <sodipodi:namedview
     id="base"
     pagecolor="#ffffff"
     bordercolor="#666666"
     borderopacity="1.0"
     inkscape:pageopacity="0.0"
     inkscape:pageshadow="2"
     inkscape:zoom="16"
     inkscape:cx="18.646409"
     inkscape:cy="7.7553183"
     inkscape:document-units="px"
     inkscape:current-layer="layer1"
     showgrid="true"
     inkscape:showpageshadow="false"
     units="px"
     inkscape:window-width="1024"
     inkscape:window-height="712"
     inkscape:window-x="0"
     inkscape:window-y="0"
     inkscape:window-maximized="1"
     inkscape:object-nodes="true"
     inkscape:snap-bbox="true">
    <inkscape:grid
       type="xygrid"
       id="grid4120" />
    <sodipodi:guide
       position="2,20.000017"
       orientation="18,0"
       id="guide4126" />
    <sodipodi:guide
       position="2,2.0000174"
       orientation="0,18"
       id="guide4128" />
    <sodipodi:guide
       position="20,2.0000174"
       orientation="-18,0"
       id="guide4130" />
    <sodipodi:guide
       position="20,20.000017"
       orientation="0,-18"
       id="guide4132" />
    <sodipodi:guide
       position="3,19.000017"
       orientation="16,0"
       id="guide4134" />
    <sodipodi:guide
       position="3,3.0000174"
       orientation="0,16"
       id="guide4136" />
    <sodipodi:guide
       position="19,3.0000174"
       orientation="-16,0"
       id="guide4138" />
    <sodipodi:guide
       position="19,19.000017"
       orientation="0,-16"
       id="guide4140" />
    <sodipodi:guide
       position="19,13.000017"
       orientation="-6,0"
       id="guide4199" />
    <sodipodi:guide
       position="19,19.000017"
       orientation="0,-6.0000172"
       id="guide4201" />
  </sodipodi:namedview>
  <metadata
     id="metadata7">
    <rdf:RDF>
      <cc:Work
         rdf:about="">
        <dc:format>image/svg+xml</dc:format>
        <dc:type
           rdf:resource="http://purl.org/dc/dcmitype/StillImage" />
        <dc:title></dc:title>
      </cc:Work>
    </rdf:RDF>
  </metadata>
  <g
     inkscape:label="Capa 1"
     inkscape:groupmode="layer"
     id="layer1"
     transform="translate(0,-1030.3622)">
    <path
       style="fill:#f2f2f2;fill-opacity:1;stroke:none"
       d="M 4 9 L 4 17 A 7 1.9999913 0 0 0 11 19 A 7 1.9999913 0 0 0 18 17 L 18 9 A 7 1.9999913 0 0 1 17 10.025391 L 17 17 A 6 1 0 0 1 11 18 A 6 1 0 0 1 5 17 L 5 10.025391 A 7 1.9999913 0 0 1 4 9 z "
       transform="translate(0,1030.3622)"
       id="rect4254" />
    <path
       style="fill:#f2f2f2;fill-opacity:1;stroke:none"
       d="M 4 9 A 7 3 0 0 0 11 12 A 7 3 0 0 0 18 9 L 17 9 A 6 2 0 0 1 11 11 A 6 2 0 0 1 5 9 L 4 9 z "
       transform="translate(0,1030.3622)"
       id="path4304" />
    <path
       style="fill:#f2f2f2;fill-opacity:1;stroke:none"
       d="M 11 3 A 7 6.0000086 0 0 0 4 9 L 5 9 A 6 5 0 0 1 11 4 A 6 5 0 0 1 17 9 L 18 9 A 7 6.0000086 0 0 0 11 3 z "
       transform="translate(0,1030.3622)"
       id="path4312" />
    <path
       style="fill:#f2f2f2;fill-opacity:1;fill-rule:evenodd;stroke:none;stroke-width:1px;stroke-linecap:butt;stroke-linejoin:miter;stroke-opacity:1"
       d="M 11 3 A 7 6.0000086 0 0 0 9.9179688 3.0761719 C 8.120271 4.5527248 7.2396489 7.2349157 7.0410156 9.5 A 6 2 0 0 0 11 10 C 11.360264 6.9891617 12.587627 5.0360138 13.685547 3.4609375 A 7 6.0000086 0 0 0 11 3 z "
       transform="translate(0,1030.3622)"
       id="path4335" />
  </g>
</svg>

<svg xmlns="http://www.w3.org/2000/svg" viewBox="0 0 22 22"><g fill="#f2f2f2"><path d="m4 9v8a7 1.999991 0 0 0 7 2 7 1.999991 0 0 0 7 -2v-8a7 1.999991 0 0 1 -1 1.025391v6.975a6 1 0 0 1 -6 1 6 1 0 0 1 -6 -1v-6.975a7 1.999991 0 0 1 -1 -1.025391"/><path d="M4 9A7 3 0 0 0 11 12 7 3 0 0 0 18 9H17A6 2 0 0 1 11 11 6 2 0 0 1 5 9H4"/><path d="M11 3A7 6.00001 0 0 0 4 9H5A6 5 0 0 1 11 4 6 5 0 0 1 17 9H18A7 6.00001 0 0 0 11 3"/><path d="M11 3A7 6.00001 0 0 0 9.917969 3.076172C8.12 4.553 7.24 7.235 7.04 9.5A6 2 0 0 0 11 10C11.36 6.989 12.588 5.04 13.686 3.461A7 6.00001 0 0 0 11 3" fill-rule="evenodd"/></g></svg>
